packages/icons/svg/Fill/flip.svg

<svg width="24" height="24" viewBox="0 0 24 24" fill="none" xmlns="http://www.w3.org/2000/svg">
<g id="Icon/Fill/flip">
<path id="Mask" fill-rule="evenodd" clip-rule="evenodd" d="M14.293 7.207C13.902 6.816 13.902 6.184 14.293 5.793L17.293 2.793C17.684 2.402 18.316 2.402 18.707 2.793L21.707 5.793C21.902 5.988 22 6.244 22 6.5C22 6.756 21.902 7.012 21.707 7.207C21.316 7.598 20.684 7.598 20.293 7.207L19 5.914V17.91C19 19.89 17.417 21.5 15.471 21.5H13C12.447 21.5 12 21.053 12 20.5C12 19.947 12.447 19.5 13 19.5H15.471C16.314 19.5 17 18.787 17 17.91V5.914L15.707 7.207C15.316 7.598 14.684 7.598 14.293 7.207ZM5.00001 18.0858V6.0898C5.00001 4.1108 6.58301 2.4998 8.52901 2.4998H11C11.553 2.4998 12 2.9468 12 3.4998C12 4.0528 11.553 4.4998 11 4.4998H8.52901C7.68701 4.4998 7.00001 5.2128 7.00001 6.0898V18.0858L8.29301 16.7928C8.68401 16.4028 9.31601 16.4028 9.70701 16.7928C9.90201 16.9878 10 17.2438 10 17.4998C10 17.7558 9.90201 18.0118 9.70701 18.2068L6.70701 21.2068C6.31601 21.5978 5.68401 21.5978 5.29301 21.2068L2.29301 18.2068C1.90201 17.8168 1.90201 17.1838 2.29301 16.7928C2.68401 16.4028 3.31601 16.4028 3.70701 16.7928L5.00001 18.0858Z" fill="#000000"/>
</g>
</svg>

<svg fill="none" height="24" viewBox="0 0 24 24" width="24" xmlns="http://www.w3.org/2000/svg"><path clip-rule="evenodd" d="m14.293 7.20701c-.391-.391-.391-1.023 0-1.414l3-3c.391-.391 1.023-.391 1.414 0l3 3c.195.195.293.451.293.707s-.098.512-.293.707c-.391.391-1.023.391-1.414 0l-1.293-1.293v11.99599c0 1.98-1.583 3.59-3.529 3.59h-2.471c-.553 0-1-.447-1-1s.447-1 1-1h2.471c.843 0 1.529-.713 1.529-1.59v-11.99599l-1.293 1.293c-.391.391-1.023.391-1.414 0zm-9.29299 10.87879v-11.99599c0-1.979 1.583-3.59 3.529-3.59h2.47099c.553 0 1 .447 1 1s-.447 1-1 1h-2.47099c-.842 0-1.529.713-1.529 1.59v11.99599l1.293-1.293c.391-.39 1.023-.39 1.414 0 .195.195.29299.451.29299.707s-.09799.512-.29299.707l-3 3c-.391.391-1.023.391-1.414 0l-3-3c-.391-.39-.391-1.023 0-1.414.391-.39 1.023-.39 1.414 0z" fill="#6b7280" fill-rule="evenodd"/></svg>
